X: 35331
T: Rosenallis
R: reel
M: 4/4
K: Gmajor
|:G2 FG EGDB,|G,A,B,D EDB,D|GFGA BABd|(3efg dB AGED|
G2 AG EGDB,|G,A,B,D EDB,D|GFGA BGBd|1 (3efg dc BGGD:|2 (3efg dc BGBd||
|:g2 fg (3efg dB|GABG AGEA|g2 fg (3efg eg|egfa ggga|
bggg agea|gedB AGEG|cBcd efge|1 dcAc BGBd:|2 dcAc BGAF||

